X:1
T:Title
L:1/8
M:4/4
K:Bb
V:1 treble nm="Grand Piano"
V:1
 z4 z2[Q:1/4=100] DE | F2 F2 F2 F=E | GFED- D2 D2 | G2 G2 G2 GF | AGFE DCDE | F2 F2 F2 F=E | %6
 GFED- D2 D2 | G2 G2 G2 GF | AG FG/A/ A2 A2 | A2 A2 AA A2 |[M:3/4] BA GF GA |[M:4/4] B2 BB B2 BA | %12
 GA B2 B4 | B2 dc cB B2 | BAGA B2 B2 | FEDC DE F2- | FBdc .d2 BB | BAGA B2 B2 | FEDC DE .F2 | %19
 z G G2 G2 E2 | AA A2 F4 | B2 B2 B2 G2 | AA c2 B4 | G2 G2 G2 E2 | AA A2 F4 | B2 B2 B2 G2 | %26
 AA c2 B2 z2 |] %27

